flags/af-emirate.svg

<svg width="512" height="512" viewBox="0 0 512 512" fill="none" xmlns="http://www.w3.org/2000/svg">
<rect width="512" height="512" fill="var(--flag-palette-white, #eeeeee)"/>
<path d="M131 189V267C131 279 121 289 109 289V323C139 323 164 298 164 267V189H131ZM181 189V234C181 244.343 185.109 254.263 192.423 261.577C199.737 268.891 209.657 273 220 273C227.872 272.94 235.541 270.5 242 266C248.459 270.5 256.128 272.94 264 273L269 272C267.889 276.766 265.22 281.025 261.417 284.103C257.614 287.182 252.892 288.905 248 289V323C278 323 303 298 303 267V189H270V234C269.533 235.071 268.764 235.982 267.787 236.621C266.81 237.261 265.668 237.602 264.5 237.602C263.332 237.602 262.19 237.261 261.213 236.621C260.236 235.982 259.467 235.071 259 234V189H225V234C224.533 235.071 223.764 235.982 222.787 236.621C221.81 237.261 220.668 237.602 219.5 237.602C218.332 237.602 217.19 237.261 216.213 236.621C215.236 235.982 214.467 235.071 214 234V189H181ZM320 189V267H353V189H320ZM370 189V267C370 279 360 289 348 289V323C379 323 404 298 404 267V189H370ZM181 289V323H231V289H181Z" fill="var(--flag-palette-black, #333333)"/>
</svg>

<svg xmlns="http://www.w3.org/2000/svg" width="512" height="512" fill="none"><g clip-path="url(#a)"><path fill="#EEE" d="M0 0h512v512H0z"/><path fill="#333" d="M131 189v78c0 12-10 22-22 22v34c30 0 55-25 55-56v-78zm50 0v45a39 39 0 0 0 61 32 39 39 0 0 0 22 7l5-1a22 22 0 0 1-21 17v34c30 0 55-25 55-56v-78h-33v45a6 6 0 0 1-11 0v-45h-34v45a6 6 0 0 1-11 0v-45zm139 0v78h33v-78zm50 0v78c0 12-10 22-22 22v34c31 0 56-25 56-56v-78zM181 289v34h50v-34z"/></g><defs><clipPath id="a"><path fill="#fff" d="M0 0h512v512H0z"/></clipPath></defs></svg>
